localPackages/DesignSystem/Sources/DesignSystem/Resources/Assets.xcassets/IconSet/ic-image.imageset/ic-image.svg

<svg width="24" height="24" viewBox="0 0 24 24" fill="none" xmlns="http://www.w3.org/2000/svg">
<g id="ic-image">
<path id="Icon" fill-rule="evenodd" clip-rule="evenodd" d="M19.5 4.5H4.5C3.67157 4.5 3 5.17157 3 6V18C3 18.8284 3.67157 19.5 4.5 19.5H19.5C20.3284 19.5 21 18.8284 21 18V6C21 5.17157 20.3284 4.5 19.5 4.5ZM4.5 3C2.84315 3 1.5 4.34315 1.5 6V18C1.5 19.6569 2.84315 21 4.5 21H19.5C21.1569 21 22.5 19.6569 22.5 18V6C22.5 4.34315 21.1569 3 19.5 3H4.5ZM18.6691 18C19.3463 18 19.7381 17.2752 19.3407 16.7574L14.6875 10.6942C14.4888 10.4353 14.0802 10.4353 13.8815 10.6942L10.4975 15.1035L8.61604 12.6519C8.41735 12.393 8.00875 12.393 7.81006 12.6519L4.65926 16.7574C4.26191 17.2752 4.6537 18 5.33091 18H18.6691ZM9.75 10.5C10.5784 10.5 11.25 9.82843 11.25 9C11.25 8.17157 10.5784 7.5 9.75 7.5C8.92157 7.5 8.25 8.17157 8.25 9C8.25 9.82843 8.92157 10.5 9.75 10.5Z" fill="#0F0F0F"/>
</g>
</svg>

<svg xmlns="http://www.w3.org/2000/svg" width="24" height="24" viewBox="0 0 24 24">
  <g class="ic-image">
    <path fill-rule="evenodd" d="M19.5 4.5h-15A1.5 1.5 0 0 0 3 6v12a1.5 1.5 0 0 0 1.5 1.5h15A1.5 1.5 0 0 0 21 18V6a1.5 1.5 0 0 0-1.5-1.5ZM4.5 3a3 3 0 0 0-3 3v12a3 3 0 0 0 3 3h15a3 3 0 0 0 3-3V6a3 3 0 0 0-3-3h-15Zm14.17 15c.676 0 1.068-.725.67-1.243l-4.652-6.063a.515.515 0 0 0-.806 0l-3.384 4.41-1.882-2.452a.515.515 0 0 0-.806 0l-3.15 4.105c-.398.518-.006 1.243.67 1.243h13.34Zm-8.92-7.5a1.5 1.5 0 1 0 0-3 1.5 1.5 0 0 0 0 3Z" class="Icon"/>
  </g>
</svg>
